X:4
T:MacArthur Road
T: Thirds
R:Reel
C:Adam Blaine
L:1/8
M:C|
K:D
[|{g}dA {gAGAG}A2 {g}AB{g}de | {fege} f2 {g}fd {g}ed{g}Bd | {gef}e2 {A}ef {g}ed{g}Bd | {g}ef{g}fd {g}ed{g}Be |
{g}dA {gAGAG}A2 {g}AB{g}de | {fege} f2 {g}fd {g}ed{g}Bd | {gef}e2 {A}ef {g}ed{g}B{d}A| {g}AB{g}de {Gdc}d2 {g}de ||
{g}fA {gAGAG}A2 {g}fAgA | {gfg}f2 ge {g}fd{g}Bd | {gef}e2 {A}ef {g}ed{g}Bd | {g}ef{g}fd {g}ed{g}Bd |
{g}fA {gAGAG}A2 {g}fAgA | {gfg}f2 ge {g}fd{g}Bd | {gef}e2 {A}ef {g}ed{g}B{d}A | {g}AB{g}de {Gdc}d2 {g}de |
{g}f4 {g}f2 g2 | f2 g2 f4 | {g}(e8 | e4) {g}f2g2 |
"    Welcome back to the opener"{g}d8| {g}B8 | {e}(A8 | A2) B2 c2 A2 |
{g}d8 | {g}B4 c4 | "Harmonies bringing it back" | {g}dA {gAGAG}A2 {g}AB{g}de | {g}faga eA{g}Bd |
{gef}e2 {A}ef {g}ed{g}Bd | {g}e(a a)f {g}ed{g}Bd | {g}A8 | {g}d2 B2 {g}A2 z2|]
